X: 6
T: Hardiman The Fiddler
R: slip jig
M: 9/8
L: 1/8
K: Ador
|:B2B B2A G2A|B2B B2c dBA| BcB B2A G2A|B2e e2B dBA:|
|:B2e e2f g3|B2e e2B dBA|B2e e2f g2a|b2e e2B dBA:|


Tune 48	Setting 48

